X:1
T:Title
%%score { ( 1 3 4 ) | ( 2 5 ) }
L:1/8
M:3/4
K:Bb
V:1 treble nm="Grand Piano"
V:3 treble 
V:4 treble 
V:2 treble 
V:5 treble 
V:1
 z2 z2[Q:1/4=100] B>A | z2 z =B [_Ac]>[FA] | [F_A]2 G2 B,2 | [EG]4 z2 |[M:5/8] [EG]-[EG]- [EG]3 | %5
[M:1/4] G>G |[M:3/4] e3 e dc | f2 B2 Bc | d2 e2 A>A |[M:2/4] [DB]4 |[M:1/4] [B,GB][B,GB] | %11
[M:3/4] [Ge]3 [Ge] [GB][EG] | [Ed]2 [Ec]2 z2 | B4 [B,F_A]2 |[M:2/4] [B,EG]4 |] %15
V:2
 z2 z2 G>^F | [E,,E,]2 z G [E,_A,C]2 | [E,,E,]2 [E,G,B,E]2 [E,G,]2 | z2 [E,_A,]2 z2 | %4
[M:5/8] [E,,E,]2 [E,G,]3 |[M:1/4] E,>E, |[M:3/4] G,4 B,2 | [B,D]4 .[^F,=E]2 | %8
 [F,F]2- [F,CF]2 [F,CE]>[F,CE] |[M:2/4] F,2 z2 |[M:1/4] E,E, |[M:3/4] [E,B,]3 [E,B,] [E,E][E,B,] | %12
 [_A,,_A,]2 [A,,A,]2 z2 | G4[K:bass] z2 |[M:2/4] E,4 |] %15
V:3
 x6 | [GB]4 z2 | x6 | z2 z F [DF]>[D^F] |[M:5/8] z2 B,3 |[M:1/4] x2 |[M:3/4] x6 | x6 | x6 | %9
[M:2/4] x4 |[M:1/4] x2 |[M:3/4] x6 | x6 | x6 |[M:2/4] x4 |] %15
V:4
 x6 | z2 B,2 z2 | x6 | z2 C2 z2 |[M:5/8] x5 |[M:1/4] x2 |[M:3/4] x6 | x6 | x6 |[M:2/4] x4 | %10
[M:1/4] x2 |[M:3/4] x6 | x6 | x6 |[M:2/4] x4 |] %15
V:5
 x6 | z2 [E,G,]2 z2 | x6 | [_A,,_A,]2 z E [B,,B,]2 |[M:5/8] x5 |[M:1/4] x2 |[M:3/4] C,3 C, F,E, | %7
 D,2 G,2 B,-[^F,B,=E] | B,2 z2 z2 |[M:2/4] B,,2- [B,,_A,]2 |[M:1/4] x2 |[M:3/4] x6 | x6 | %13
 z2 C2[K:bass] B,,>B,, |[M:2/4] x4 |] %15

